X:1
T:Title
%%score { 1 | 2 }
L:1/8
M:4/4
K:G
V:1 treble nm="Grand Piano"
V:2 bass 
V:1
 z4 z2[Q:1/4=104] GA | B2 B2 A2 G2 | G2 F4 FG | A2 A2 G2 [FA]2 |[M:3/4] B6 |[M:1/4] Bc | %6
[M:4/4] d3 [B,DB] [CDA]2 [DG]2 | [CEG]2 [G,CE]4 [G,EG][G,CE] | [G,B,D]2 [B,DG]2 [DGB]3 [CFA] | %9
[M:3/4] [B,G]6 |[M:1/4] Bc |[M:4/4] d2 d2 [Ge]2 [Gd]2 | [Ed]2 [Ec]4 [EA][GB] | %13
 [Fc]2 [Fc]2 [Fd]2 [FA]2 |[M:3/4] B6 |[M:1/4] Bc |[M:4/4] d3 [B,DB] [CDA]2 [DG]2 | %17
 [CEG]2 [G,CE]4 [G,EG][G,CE] | [G,B,D]2 [B,DG]2 [DGB]2 [CFA]2 |[M:3/4] [B,G]6 |] %20
V:2
 z4 z2 [G,B,D][G,CD] | [G,D]2 [G,D]2 [G,CD]2 [G,B,D]2 | [D,B,D]2 [D,A,D]4 [D,A,D][D,B,D] | %3
 [D,CD]2 [D,CD]2 [D,B,D]2 [D,D]2 |[M:3/4][K:treble] [G,DG]6 |[M:1/4] [G,D][G,A,D] | %6
[M:4/4] [G,B,G]3[K:bass] G,, A,,2 B,,2 | C,2 C,4 C,C, | D,2 D,2 D,3 D, |[M:3/4] G,,6 | %10
[M:1/4][K:treble] [G,G][G,A,G] |[M:4/4] [G,B,G]2 [G,B,G]2[K:bass] [E,B,]2 [E,B,]2 | %12
 [A,,A,]2 [A,,A,]4 [A,,A,][A,,A,] | [D,A,]2 [D,A,]2 [D,A,]2 [D,D]2 |[M:3/4][K:treble] [G,DG]6 | %15
[M:1/4] [G,D][G,A,D] |[M:4/4] [G,B,G]3[K:bass] G,, A,,2 B,,2 | C,2 C,4 C,C, | D,2 D,2 D,2 D,2 | %19
[M:3/4] G,,6 |] %20

